src/16/panel/hexchat-highlight.svg

<svg xmlns="http://www.w3.org/2000/svg" width="16" height="16" version="1.1">
 <defs>
  <style id="current-color-scheme" type="text/css">
   .ColorScheme-Text { color:#dfdfdf; } .ColorScheme-Highlight { color:#4285f4; }
  </style>
 </defs>
 <path style="fill:currentColor" class="ColorScheme-Text" d="M 3.9453125 2 C 3.6305844 1.9997429 3.3396609 2.1633916 3.1816406 2.4277344 L 0.11914062 7.5683594 C -0.039842165 7.8349309 -0.039842165 8.1639732 0.11914062 8.4296875 L 3.1816406 13.572266 C 3.3395734 13.836266 3.6304969 14 3.9453125 14 L 10.058594 14 C 10.373584 14 10.661942 13.836266 10.820312 13.572266 L 13.880859 8.4296875 C 14.040105 8.1639732 14.040105 7.8349309 13.880859 7.5683594 L 10.820312 2.4277344 C 10.661942 2.1639059 10.373584 2.0002572 10.058594 2 L 3.9453125 2 z M 4.5742188 4 L 9.4296875 4 L 9.4882812 4.0976562 L 7 6.5859375 L 4.5136719 4.0996094 L 4.5742188 4 z M 10.542969 5.8710938 L 11.808594 8 L 10.542969 10.128906 L 8.4140625 8 L 10.542969 5.8710938 z M 3.4589844 5.8730469 L 5.5859375 8 L 3.4589844 10.126953 L 2.1914062 8 L 3.4589844 5.8730469 z M 7 9.4140625 L 9.4863281 11.900391 L 9.4277344 12 L 4.5742188 12 L 4.5136719 11.900391 L 7 9.4140625 z"/>
 <path style="fill:currentColor" class="ColorScheme-Highlight" d="M 12.432348,2.0003749 C 12.088438,2 11.890091,2.3488977 12.064445,2.6023212 l 0.7614,1.0983681 0.757401,1.0984431 c 0.186351,0.2678234 0.64943,0.2678234 0.834981,0 l 0.7606,-1.0983681 0.757401,-1.0983682 C 16.118579,2.3345728 15.88824,2.0014249 15.519537,2 Z"/>
</svg>

<svg xmlns="http://www.w3.org/2000/svg" width="16" height="16"><defs><style id="current-color-scheme" type="text/css">.ColorScheme-Text{color:#dfdfdf;}.ColorScheme-Highlight{color:#5294e2;}</style></defs><path d="M3.945 2a.888.888 0 0 0-.763.428L.119 7.568a.837.837 0 0 0 0 .862l3.063 5.142a.89.89 0 0 0 .763.428h6.114a.886.886 0 0 0 .761-.428l3.06-5.142a.836.836 0 0 0 0-.862l-3.06-5.14A.887.887 0 0 0 10.06 2H3.945zm.63 2H9.43l.058.098L7 6.586 4.514 4.1l.06-.1zm5.968 1.871L11.809 8l-1.266 2.129L8.414 8l2.129-2.129zm-7.084.002L5.586 8l-2.127 2.127L2.191 8 3.46 5.873zM7 9.414L9.486 11.9l-.058.1H4.574l-.06-.1L7 9.414z" fill="currentColor" class="ColorScheme-Text"/><path d="M12.432 2c-.344 0-.542.349-.368.602l.762 1.099.757 1.098c.187.268.65.268.835 0l.76-1.098.758-1.099c.183-.267-.048-.6-.416-.602z" fill="currentColor" class="ColorScheme-Highlight"/></svg>
